brandFactory_export/1.Light/Escudo ok seguridad ok _1Light.svg

<?xml version="1.0" encoding="UTF-8"?>
<svg width="24px" height="24px" viewBox="0 0 24 24" version="1.1" xmlns="http://www.w3.org/2000/svg" xmlns:xlink="http://www.w3.org/1999/xlink">
    <title>1.Light/Escudo ok seguridad ok _1Light</title>
    <g id="Symbols" stroke="none" stroke-width="1" fill="none" fill-rule="evenodd">
        <g id="1.Light/Escudo-ok-seguridad-ok-_1Light" fill="#5CB615" fill-rule="nonzero">
            <path d="M21.1764706,14.8571429 C21.6470588,12.1042017 21.7042017,6.01680672 21.707563,4.15798319 C19.5327731,4.34621849 18.2420168,3.47563025 16.9915966,2.64201681 C15.7781513,1.82857143 14.5210084,0.988235294 12.3529412,0.988235294 L12.3462185,0.988235294 C10.1781513,0.988235294 8.9210084,1.82857143 7.70420168,2.64201681 C6.44369748,3.4789916 5.12605042,4.33613445 2.99159664,4.16470588 C2.99831933,6.03361345 3.05882353,12.107563 3.53277311,14.8537815 C4.12773109,18.3159664 11.0521008,21.9294118 12.3495798,22.5815126 C13.6470588,21.9327731 20.5781513,18.3159664 21.1764706,14.8571429 Z M22.6858029,3.60336134 C22.6858029,3.93277311 22.7058824,11.6840336 22.1378151,15.0252101 C21.3983193,19.3243697 12.9210084,23.405042 12.5613445,23.5764706 C12.4297486,23.6403372 12.2761338,23.6403372 12.1445378,23.5764706 C11.7815126,23.405042 3.31428571,19.3243697 2.57478992,15.0252101 C1.99327731,11.6840336 2.01667484,3.93277311 2.01667484,3.60336134 C2.02016807,3.33109244 2.24201681,3.11260504 2.51092437,3.11596639 C2.54789916,3.11596639 2.58487395,3.11932773 2.62184874,3.12941176 C4.71596639,3.45882353 5.85210084,2.69915966 7.1697479,1.81848739 C8.44033613,0.964705882 9.88235294,0 12.3462185,0 L12.3529412,0 C14.8168067,0.00336134454 16.2588235,0.968067227 17.5327731,1.81848739 C18.8470588,2.69579832 19.9831933,3.45882353 22.0840336,3.12941176 C22.2285714,3.1092437 22.3764706,3.14621849 22.4941176,3.23697479 C22.605042,3.32436975 22.6756303,3.45882353 22.6858029,3.60336134 Z M16.8134454,8.11428571 C17.0016807,7.92268908 17.3109244,7.92268908 17.4991597,8.11092437 L17.502521,8.11428571 C17.6941176,8.30588235 17.6941176,8.61848739 17.502521,8.81008403 L10.8638655,15.5092437 C10.6756303,15.7008403 10.3697479,15.7008403 10.1781513,15.512605 L10.1747899,15.5092437 L7.19327731,12.5008403 C7.00168067,12.3092437 7.00168067,11.9966387 7.19327731,11.805042 C7.38151261,11.6134454 7.6907563,11.6134454 7.8789916,11.8016807 L7.88235294,11.805042 L10.5176471,14.4638655 L16.8134454,8.11428571 L16.8134454,8.11428571 Z" id="Escudo-ok-seguridad-ok-_1Light"></path>
        </g>
    </g>
</svg>

<svg width="24" height="24" viewBox="0 0 24 24" xmlns="http://www.w3.org/2000/svg"><path d="M21.176 14.857c.471-2.753.528-8.84.532-10.699-2.175.188-3.466-.682-4.716-1.516-1.214-.813-2.471-1.654-4.64-1.654h-.006c-2.168 0-3.425.84-4.642 1.654-1.26.837-2.578 1.694-4.712 1.523.006 1.869.067 7.943.54 10.689.596 3.462 7.52 7.075 8.818 7.728 1.297-.65 8.228-4.266 8.826-7.725zm1.51-11.254c0 .33.02 8.081-.548 11.422-.74 4.3-9.217 8.38-9.577 8.551a.477.477 0 01-.416 0c-.363-.171-8.83-4.252-9.57-8.55-.582-3.342-.558-11.093-.558-11.423a.492.492 0 01.605-.474c2.094.33 3.23-.43 4.548-1.31C8.44.964 9.882 0 12.346 0h.007c2.464.003 3.906.968 5.18 1.818 1.314.878 2.45 1.64 4.551 1.311a.546.546 0 01.41.108c.111.087.182.222.192.366zm-5.873 4.511a.484.484 0 01.686-.003l.004.003a.493.493 0 010 .696l-6.64 6.7a.484.484 0 01-.685.003l-.003-.004-2.982-3.008a.493.493 0 010-.696.484.484 0 01.686-.003l.003.003 2.636 2.659 6.295-6.35z" fill="#5CB615" fill-rule="nonzero"/></svg>
